X:870
L:1/8
M:2/2
K:D
 f2 | d2 (AF) (D/E/F/G/ A)F | d2 (AF) BEEe | d2 (AF) (D/E/F/G/ A)F | G(EFD) EB, B,2 :| f | 
 d2 (fd) (f/g/a) fd | d2 (fd) eBBe | d2 fd (f/g/a) fd | g(fed) eBBf | d2 (fd) (f/g/a) fd | 
 d2 (fd) eBBe | d2 (fd) gef(d | ge)fd eBB ||

